X:12822
T:Parting Lovers, The
R:Jig
O:England
M:6/8
A:Lancashire
B:Winder
K:G
D |\
G2B A2c | B2d c2e | def gfe | dcB AGF | \
G2B A2c | B2d c2e | dcB AGF | G3 G2 :|*
|:d|\
g2e f2d | g2e f2d | gfe agf | efd ^cBA |\
g2e f2d | g2e f2d | egf ed^c | d3 d3 :|**
